X:70
M:4/4
L:1/4
K:G
z d B A | G3 D | E G A D | B3.- B | A2.- A G | F2 F2 | G A F E | D3.- D | G2 G.- G | d3 d | c d c/B/ A/G/ | A2 !sintro!(d2 | e) d/c/ d2 | G3 (A/B/ | c) B A2 | G4 !eintro!|] z d B A | G3 D | E G A D | B4 | A2 A G | F2 F2 | G A F E | D3.- D | G2 G2 | d3 d | c d c/B/ A/G/ | A2 (d2 | e) d/c/ d2 | G3 (A/B/ | c) B A2 | G4 |]
